X:1
T:Dumfries-shire Hunt (The)
T:Dumfries-shire Hunt (The)
T:Robert Riddell
C:Robert Riddell
L:1/8
M:2/2
K:A
V:1 treble 
V:1
 B | AFEF ABce | faec B/B/B Tc>B | AFEF ABce | afe>c A/A/AA :| B | AaBa caBa | Aaca B/B/B Tc>B | %8
 AaBa caBa | AFEF A/A/A Tc>B | AaBa caBa | Aaca B/B/B Tc>B | AcBd cefa | AFEF A/A/A A2 || %14

